X:1
T:Cum transisset
T:J. Furmanik
T:Cum transisset
C:J. Furmanik
%%score { ( 1 2 ) | ( 3 4 ) }
L:1/8
Q:1/4=80
M:4/4
K:C
V:1 treble nm="P1"
V:2 treble 
V:3 bass 
V:4 bass 
V:1
"^SOPRANALT""^Andante" z2!mf! A4 G2 | A2 c2 d3 d | A2"^|""^|" (A4 B2) | c4 G4 | A2 F2 E4 | %5
w: Cum tran-|sis- set sab- ba-|tum Ma- *|ri- a|Ma- gda- le-|
w: |||||
 F2"^|"!<(! AA c2 BA | dd!<)!cB!f! f2 e"^|"e | ed!>(!cd B3 B | !fermata![Ec]8!>)! || %9
w: ne, et Ma- ri- a Ja-|co- bi et Sa- lo- me e-|me- * runt a- ro- ma-|ta.|
w: ||||
!p! z2 e2 A3 B | (c2 B2) A2"^|" (A"^-"B | c"^|""^-"B)cd"^-""^-" e4 | e2"^|"!mf! cd e"^-"dc"^-"B | %13
w: * * Ut|ve- * ni- * *|tes * un- * ge-|sum. Al- le- lu- * * *|
w: Ut ve- ni-|en- * tes un- *|* * ge- rent Je-|sum. * * * * * *|
 A4 z2!f! cc | f"^-"ed"^-"c B2"^|"!mf! BA |!>(! (^G2"^-" A4)"^-" G2 | !fermata![EA]8!>)! || %17
w: ja, al- le-|lu- * * * ja, al- le-|lu- * *|ja.|
w: ||||
!f! c4 B2 d2 | (c2 B"^-"A) G4 | A2 c2 B2 d2 | c4 c2 z2 | e3 e e2 e2 | e2 e2 g4 | e4"^|" d4 | %24
w: Et val- de|ma- * * ne|u- na sab- ba-|to- rum|ve- ni- unt ad|mo- nu- men-|tum or-|
w: |||||||
 c2 c2 d4 | !fermata![Ge]8 ||!p!"^$" z2 e2 A3 B | (c2 B2) A2"^|" (A"^-"B | %28
w: to jam so-|le.|* * Ut|ve- * ni- * *|
w: ||* ve- ni-|en- * tes un- *|
 c"^-""^|"B)cd"^-""^-" e4 | e2"^|"!mf! cd e"^-"dc"^-"B | A4 z2!f! cc | f"^-"ed"^-"c!mf! B2"^|" BA | %32
w: tes un- * * ge-|sum. Al- le- lu- * * *|ja, al- le-|lu- * * * ja, al- le-|
w: * * ge- rent Je-|sum. * * * * * *|||
"^rit."!>(! (^G2"^finale""^-" A4"^-" G2) | !fermata![EA]8!>)! ||!p! c16!fine! | d2 d2"^|" c4 | %36
w: lu- * *|ja.|Gloria~Patri,~et|Fi- li- o,|
w: ||||
!<(! e2 e2!<)! | f2 dc!>(! B4 | !fermata![Ac]8!>)!!fine! || %39
w: et Spi-|ri- tu- i San-|cto.|
w: |||
V:2
 x2 A4 G2 | A2 c2 d3 d | A4 F4 | E4 E4 | D2 D4 ^C2 | D2 FF E2 EE | FFFF A2 ^GA | F2 ED E2 E2 | %8
 x8 || z4 z2 C2 | G3 F (E2 F2) | G2 GF EF ED | C2 AB cBA^G | A4 x2 EE | AGFE D2 FF | E8 | x8 || %17
 E4 E2 F2 | E4 E4 | E2 E2 E2 F2 | (F2 D2) E2 x2 | G3 G G2 G2 | G2 G2 G4 | G4 F4 | E2 E2 G4 | x8 || %26
 z4 z2 C2 | G3 F (E2 F2) | G2 GF EF ED | C2 AB cBA^G | A4 x2 EE | AGFE D2 FF | E8 | x8 || A16 | %35
 A2 A2 A4 | A2 A2 | A2 AA (A2 ^G2) | x8 || %39
V:3
"^TENOR   BAS"!mf! z2 A,4 G,2 | A,2 C2 D3 D | A,4"^|" D4 | C4 B,4 | A,2 A,2 A,4 | %5
w: |||||
w: |||||
w: |||||
 A,2"^|" A,A, A,2 ^G,A, | A,A,A,A,!f! B,2 B,"^|"C | CB,A,A, A,2 ^G,2 | A,8 || z4 z2!p! A,2 | %10
w: |||||
w: |||||
w: |||||
 E3 D C2 D2 |"^|" E2 ED CD CB, | A,2 z2!mf! z4 | CD E"^-"DC"^-"B, C2 | z4 z2!mf! DC | B,2 C2 B,4 | %16
w: ||||||
w: ||||||
w: |||Al- le- lu- * * * ja,|||
 C8 ||!f! A,4 G,2 A,2 | A,4 B,4 | A,2 A,2 G,2 G,2 | G,4 G,2 z2 | C3 C C2 C2 | C2 C2 D4 | %23
w: |||||||
w: |||||||
w: |||||||
 C4"^|" B,4 | C2 C2 C2 B,2 | C8 || z4 z2!p! A,2 | E3 D C2 D2 |"^|" E2 ED CD CB, | A,2 z2 z4 | %30
w: |||||||
w: |||||||
w: |||||||
!mf! CD E"^-"DC"^-"B, C2 | z4!mf! z2 DC | B,2 C2 B,4 | C8 ||!p! E16 | D2 D2"^|" E4 | C2 C2 | %37
w: |||||||
w: |||||||
w: Al- le- lu- * * * ja,|||||||
 D2 DE F2 E2 | E8 || %39
w: ||
w: ||
w: ||
V:4
 x2 A,4 G,2 | A,2 C2 D3 D | A,4 D,4 | A,4 E,4 | F,2 D,2 A,,4 | D,2 D,D, A,,2 B,,C, | %6
 B,,B,,C,D, D,2 E,A, | D,2 E,F, E,2 E,2 | !fermata!A,,8 || z8 | z8 | x8 | z8 | A,B, CB,A,^G, A,2 | %14
 x4 x2 D,D, | E,8 | !fermata!A,,8 || A,,4 E,2 D,2 | A,,2 B,,C, E,4 | C,2 A,,2 E,2 B,,2 | %20
 C,4 C,2 x2 | C,3 C, C,2 C,2 | C2 C2 B,4 | C4 G,4 | A,2 A,2 G,4 | !fermata!C,8 || z8 | z8 | z8 | %29
 z8 | A,B, CB,A,^G, A,2 | x4 x2 D,D, | E,8 | !fermata!A,,8 || A,16 | F,2 F,2 A,4 | A,2 A,2 | %37
 D,2 F,E, D,2 E,2 | !fermata!A,,8 || %39

